src/assets/logos/lequipe.svg

<svg height="141.08701" viewBox="0 0 800 141.087" width="800" xmlns="http://www.w3.org/2000/svg"><g fill="#ea232a"><path d="m39.864 9.838-8.859 20.393h13.289l-44.294 103.344h80.326l8.599-20.132h-37.598l44.554-103.605z"/><path d="m149.036 9.838h-38.822l-8.99 20.561h13.81c-2.867 7.033-6.384 15.893-11.335 26.835 27.619-6.513 41.688-27.854 45.337-47.396"/><path d="m212.87 30.688h38.82l8.599-20.85h-36.477l4.429-9.838h-24.491l-4.429 9.838h-32.569l-8.599 20.594h13.287l-44.03 103.153h79.988l8.858-20.373h-39.082l15.112-35.072h39.082l7.817-18.567h-38.822z"/><path d="m337.903 43.039-28.074 65.788-6.379-10.415-15.568 8.638 3.829 5.843c-13.527 0-11.219-11.171-7.902-17.521l24.489-57.158c2.868-6.439 8.817-9.277 14.68-9.526 9.304-.398 18.422 5.733 14.925 14.351m-14.925-33.201c-40.782.283-58.056 28.891-67.507 48.95-27.053 57.405 15.983 74.431 25.776 76.202 5.614 1.016 16.842 1.016 22.457 0l3.573 6.097h21.184l-7.146-10.923c15.823-1.017 34.454-22.606 42.62-39.88 8.166-17.272 32.063-79.104-40.957-80.446z"/><path d="m484.101 9.838-40.124 93.341c-7.035 13.802-38.3 12.524-29.444-5.112l37.781-88.229h-53.934l-8.858 20.374h13.808l-25.534 60.187c-10.422 22.748 4.688 43.681 38.3 43.963 34.65.291 46.379-21.215 50.027-30.16l40.124-94.364z"/><path d="m520.316 9.838-8.596 20.544h11.721l-44.03 103.456h40.384l53.413-124z"/><path d="m647.726 54.223c-1.824 3.607-7.035 15.715-14.851 15.715h-16.675l17.195-39.682h11.985c10.164 0 4.17 20.359 2.346 23.967m39.342 1.287c6.514-16.748 2.084-45.672-23.97-45.672h-75.038l-8.989 20.417h14.2l-43.771 103.32h40.383l18.239-43.026h40.125c19.02 0 32.483-18.739 38.821-35.039z"/><path d="m790.88 31.196 9.12-20.438h-95.623l-8.988 20.569h14.591l-43.904 102.647h80.773l8.075-18.376h-41.165l15.372-35.966h41.165l8.079-18.901h-41.168l12.767-29.535z"/></g></svg>

<?xml version="1.0" encoding="UTF-8" standalone="no"?>
<!-- Created with Inkscape (http://www.inkscape.org/) -->
<svg
   xmlns:svg="http://www.w3.org/2000/svg"
   xmlns="http://www.w3.org/2000/svg"
   version="1.0"
   width="800"
   height="141.08701"
   viewBox="0 0 800 141.087"
   id="Layer_1"
   xml:space="preserve"><defs
   id="defs20" />
<polyline
   fill="#EA232A"
   points="39.864,9.838 31.005,30.231 44.294,30.231 0,133.575 80.326,133.575 88.925,113.443   51.327,113.443 95.881,9.838 39.864,9.838 "
   id="polyline3"
   style="fill:#ea232a" />
<path
   d="M 149.036,9.838 L 110.214,9.838 L 101.224,30.399 L 115.034,30.399 C 112.167,37.432 108.65,46.292 103.699,57.234 C 131.318,50.721 145.387,29.38 149.036,9.838"
   style="fill:#ea232a"
   id="path5" />
<polyline
   fill="#EA232A"
   points="212.87,30.688 251.69,30.688 260.289,9.838 223.812,9.838 228.241,0 203.75,0 199.321,9.838   166.752,9.838 158.153,30.432 171.44,30.432 127.41,133.585 207.398,133.585 216.256,113.212 177.174,113.212 192.286,78.14   231.368,78.14 239.185,59.573 200.363,59.573 212.87,30.688 "
   id="polyline7"
   style="fill:#ea232a" />
<path
   d="M 337.903,43.039 L 309.829,108.827 L 303.45,98.412 L 287.882,107.05 L 291.711,112.893 C 278.184,112.893 280.492,101.722 283.809,95.372 L 308.298,38.214 C 311.166,31.775 317.115,28.937 322.978,28.688 C 332.282,28.29 341.4,34.421 337.903,43.039 M 322.978,9.838 C 282.196,10.121 264.922,38.729 255.471,58.788 C 228.418,116.193 271.454,133.219 281.247,134.99 C 286.861,136.006 298.089,136.006 303.704,134.99 L 307.277,141.087 L 328.461,141.087 L 321.315,130.164 C 337.138,129.147 355.769,107.558 363.935,90.284 C 372.101,73.012 395.998,11.18 322.978,9.838 z "
   style="fill:#ea232a"
   id="path9" />
<path
   d="M 484.101,9.838 L 443.977,103.179 C 436.942,116.981 405.677,115.703 414.533,98.067 L 452.314,9.838 L 398.38,9.838 L 389.522,30.212 L 403.33,30.212 L 377.796,90.399 C 367.374,113.147 382.484,134.08 416.096,134.362 C 450.746,134.653 462.475,113.147 466.123,104.202 L 506.247,9.838 L 484.101,9.838"
   style="fill:#ea232a"
   id="path11" />
<polyline
   fill="#EA232A"
   points="520.316,9.838 511.72,30.382 523.441,30.382 479.411,133.838 519.795,133.838 573.208,9.838   520.316,9.838 "
   id="polyline13"
   style="fill:#ea232a" />
<path
   d="M 647.726,54.223 C 645.902,57.83 640.691,69.938 632.875,69.938 L 616.2,69.938 L 633.395,30.256 L 645.38,30.256 C 655.544,30.256 649.55,50.615 647.726,54.223 M 687.068,55.51 C 693.582,38.762 689.152,9.838 663.098,9.838 L 588.06,9.838 L 579.071,30.255 L 593.271,30.255 L 549.5,133.575 L 589.883,133.575 L 608.122,90.549 L 648.247,90.549 C 667.267,90.549 680.73,71.81 687.068,55.51 z "
   style="fill:#ea232a"
   id="path15" />
<polyline
   fill="#EA232A"
   points="790.88,31.196 800,10.758 704.377,10.758 695.389,31.327 709.98,31.327 666.076,133.974   746.849,133.974 754.924,115.598 713.759,115.598 729.131,79.632 770.296,79.632 778.375,60.731 737.207,60.731 749.974,31.196   790.88,31.196 "
   id="polyline17"
   style="fill:#ea232a" />
</svg>
